usr/share/icons/biglinux-icons-material-dark/16/actions/zoom-out-y.svg

<svg version="1.1" viewBox="0 0 16 16" xmlns="http://www.w3.org/2000/svg">
 <defs>
  <style id="current-color-scheme" type="text/css">.ColorScheme-Text {
        color:#dedede;
      }</style>
 </defs>
 <path class="ColorScheme-Text" d="m3 1c-1.1046 0-2 0.89543-2 2s0.89543 2 2 2 2-0.89543 2-2c1.987e-4 -0.016275 1.987e-4 -0.032553 0-0.048828-0.026493-1.0855-0.91421-1.9515-2-1.9512zm4 0v1h6c0.554 0 1 0.446 1 1v3h1v-3c0-1.108-0.892-2-2-2zm-4 1c0.55228 0 1 0.44772 1 1s-0.44772 1-1 1-1-0.44772-1-1 0.44772-1 1-1zm-2 5v6c0 1.108 0.892 2 2 2h4v-1h-4c-0.554 0-1-0.446-1-1v-6zm9 0v5.0859l-1.6211-1.6211-0.70703 0.70703 2.8281 2.8281 2.8281-2.8281-0.70703-0.70703-1.6211 1.6211v-5.0859h-1z" fill="currentColor"/>
</svg>

<svg xmlns="http://www.w3.org/2000/svg" viewBox="0 0 16 16">
<defs>
<style id="current-color-scheme" type="text/css">
.ColorScheme-Text{color:#dedede}
</style>
</defs>
<path fill="currentColor" d="M3 1a2 2 0 1 0 0 4 2 2 0 0 0 0-4m4 0v1h6c.554 0 1 .446 1 1v3h1V3c0-1.108-.892-2-2-2zM3 2a1 1 0 1 1 0 2 1 1 0 0 1 0-2M1 7v6c0 1.108.892 2 2 2h4v-1H3c-.554 0-1-.446-1-1V7zm9 0v5.086l-1.621-1.621-.707.707L10.5 14l2.828-2.828-.707-.707L11 12.085V7z" class="ColorScheme-Text"/>
</svg>
